X:1
T:Mazurka
%%textfont Helvetica-Narrow 10pt
%%begintext align
S:gehoert von Werner Schoenfeldinger
%%endtext 
F:http://simonwascher.info/
Z:abc transcription Simon Wascher
M:3/4
L:1/8
K:G
d2 |
BGB2d2 | AFA2de | d3cBA | B2G2d2|
BGB2d2 | AFA2de | d3cBA | G4 ||
D2 |
GFGABG | A2A2de | d3cBA | B2G2D2|
GFGABG | A2A2de | d3cBA | G4 |]
%%wordsfont Times-Italic 11pt
W:aus Simon Waschers TradArchiv
